images/logo.svg

<svg width="188" height="40" viewBox="0 0 188 40" fill="none" xmlns="http://www.w3.org/2000/svg">
<path fill-rule="evenodd" clip-rule="evenodd" d="M0 0C0.157189 0.243077 0.503995 0.791389 1.04126 1.64378C1.57736 2.49629 2.24827 3.54002 3.05347 4.77485C3.8582 6.0098 4.75735 7.37612 5.75171 8.87128C6.74607 10.3677 7.75543 11.8895 8.78107 13.4377C9.8067 14.9859 10.809 16.4996 11.7877 17.9775C12.7652 19.4567 13.6493 20.8044 14.4384 22.0221C15.2272 23.2397 15.8981 24.2582 16.4506 25.0748C17.0022 25.892 17.3418 26.4046 17.4683 26.6131C17.531 26.5094 17.8152 26.066 18.3205 25.2833C18.8252 24.5012 19.4642 23.5187 20.2375 22.3354C21.0109 21.1524 21.8867 19.8047 22.8653 18.291C23.8427 16.7771 24.8534 15.2382 25.8947 13.6727C26.9367 12.1072 27.9545 10.5589 28.9481 9.02789C29.9426 7.49697 30.8575 6.10541 31.6941 4.85321C32.53 3.59974 33.2328 2.54016 33.8007 1.66913C34.3687 0.800652 34.7313 0.243077 34.8896 0V39.7122H28.688V20.3C28.688 20.0211 28.7193 19.7263 28.7825 19.413C28.8458 19.0996 28.8772 18.9084 28.8772 18.8379L17.4683 36.9462C17.3099 36.7379 16.9239 36.1642 16.3083 35.2242C15.6928 34.2854 14.9592 33.1713 14.1071 31.8846C13.2548 30.598 12.3556 29.2144 11.4088 27.7351C10.4619 26.2573 9.57008 24.8837 8.73419 23.6143C7.8976 22.3434 7.18747 21.2653 6.60388 20.3783C6.019 19.4913 5.69624 18.9774 5.633 18.8379C5.633 18.9084 5.66438 19.0996 5.72821 19.413C5.79076 19.7263 5.82263 20.0211 5.82263 20.3V39.7122H0V0ZM52.7668 40V1.72662H75.7466V7.55503H58.559V17.8452H73.8474V23.83H58.559V34.0152H76.4111V40H52.7668ZM112.166 1.72662V7.87026H103.606V40H97.7564V7.87026H89.3865V1.72662H112.166ZM148.497 1.72662V7.87026H139.937V40H134.088V7.87026H125.718V1.72662H148.497ZM168.447 29.0824H176.363L172.931 22.6431C172.898 22.6186 172.818 22.452 172.691 22.1431C172.564 21.8351 172.468 21.5573 172.405 21.3105C172.341 21.5573 172.246 21.8351 172.119 22.1431C171.991 22.452 171.928 22.6186 171.928 22.6431L168.447 29.0824ZM182.229 40C182.134 39.8277 181.967 39.5188 181.729 39.0744C181.49 38.6307 181.196 38.0884 180.847 37.4462C180.496 36.8049 180.115 36.0957 179.701 35.3179C179.289 34.5411 178.859 33.7331 178.414 32.8939H166.445L162.629 40H156.859C156.985 39.7778 157.288 39.2288 157.765 38.353C158.242 37.4773 158.838 36.3914 159.554 35.0965C160.269 33.8009 161.063 32.3572 161.938 30.7658C162.812 29.1747 163.71 27.5531 164.632 25.8996C165.554 24.2469 166.452 22.6243 167.327 21.0328C168.201 19.4414 168.995 17.9977 169.711 16.7029C170.426 15.4072 171.023 14.3223 171.5 13.4456C171.977 12.5707 172.278 12.0208 172.405 11.7986C172.533 12.0208 172.842 12.5707 173.336 13.4456C173.828 14.3223 174.433 15.4072 175.148 16.7029C175.863 17.9977 176.657 19.4414 177.532 21.0328C178.406 22.6243 179.303 24.2469 180.227 25.8996C181.148 27.5531 182.046 29.1747 182.921 30.7658C183.795 32.3572 184.59 33.8009 185.305 35.0965C186.021 36.3914 186.617 37.4773 187.094 38.353C187.57 39.2288 187.873 39.7778 188 40H182.229ZM160.896 7.76978V1.72662H183.675V7.76978H160.896Z" fill="#14C5C4"/>
</svg>

<svg width="188" height="40" fill="none" xmlns="http://www.w3.org/2000/svg"><path fill-rule="evenodd" clip-rule="evenodd" d="M0 0c.157.243.504.791 1.041 1.644.536.852 1.207 1.896 2.012 3.13a525.416 525.416 0 002.699 4.097l3.03 4.567 3.006 4.54a547.652 547.652 0 012.65 4.044 193.1 193.1 0 002.013 3.053c.551.817.89 1.33 1.017 1.538.063-.104.347-.547.852-1.33.505-.782 1.144-1.764 1.918-2.948a952.94 952.94 0 002.627-4.044 404.62 404.62 0 013.03-4.618 479.056 479.056 0 003.053-4.645c.995-1.531 1.91-2.923 2.746-4.175a385.738 385.738 0 002.107-3.184C34.369.801 34.73.243 34.89 0v39.712h-6.202V20.3c0-.279.031-.574.095-.887a4.42 4.42 0 00.094-.575L17.468 36.946c-.158-.208-.544-.782-1.16-1.722a936.042 936.042 0 00-2.2-3.34 315.872 315.872 0 01-2.7-4.149 394.954 394.954 0 00-2.674-4.12l-2.13-3.237c-.585-.887-.908-1.4-.971-1.54 0 .07.031.262.095.575a4.5 4.5 0 01.095.887v19.412H0V0zm52.767 40V1.727h22.98v5.828H58.559v10.29h15.288v5.985H58.56v10.185h17.852V40H52.767zm59.399-38.273V7.87h-8.56V40h-5.85V7.87h-8.37V1.727h22.78zm36.331 0V7.87h-8.56V40h-5.849V7.87h-8.37V1.727h22.779zm19.95 27.355h7.916l-3.432-6.439c-.033-.024-.113-.191-.24-.5a6.335 6.335 0 01-.286-.832 6.486 6.486 0 01-.286.832c-.128.309-.191.476-.191.5l-3.481 6.44zM182.229 40a521.401 521.401 0 00-1.382-2.554c-.351-.641-.732-1.35-1.146-2.128l-1.287-2.424h-11.969L162.629 40h-5.77c.126-.222.429-.771.906-1.647a597.29 597.29 0 011.789-3.257c.715-1.295 1.509-2.739 2.384-4.33a876.002 876.002 0 012.694-4.866 930.77 930.77 0 002.695-4.867c.874-1.592 1.668-3.035 2.384-4.33.715-1.296 1.312-2.38 1.789-3.257.477-.875.778-1.425.905-1.647.128.222.437.772.931 1.647.492.876 1.097 1.961 1.812 3.257a2805.53 2805.53 0 012.384 4.33 731.894 731.894 0 002.695 4.867c.921 1.653 1.819 3.275 2.694 4.866.874 1.591 1.669 3.035 2.384 4.33a597.29 597.29 0 011.789 3.257c.476.876.779 1.425.906 1.647h-5.771zM160.896 7.77V1.727h22.779V7.77h-22.779z" fill="#14C5C4"/></svg>
